X: 9675
T:Boys of the Lough, The
M:C|
R:Reel
S:Bruce's 250
K:D
dB|:A~F3 AFAB|defd B2dB|A~F3 dFAF|EDEF E2dB|\
(3ABA FA DAFA|decd BcdB|A~F3 dFAF|EDEF D4:|\
fgaf gfec|defd B2dB|A~F3 d~F3|EDEF E2FE|\
D2af gfec|defd B2dB|A~F3 dFAF|EDEF D4|\
fg (3agf gfec|decd BcdB|A~F3 ABde|f2gf e2fg|\
(3agf (3gfe fdec|(3dcB (3cBA BcdB|A~F3 d~F3|GFEG FDD2||
